static/img/sides/pasta.svg

<svg height="240" viewBox="0 0 240 240" width="240" xmlns="http://www.w3.org/2000/svg">
  <g fill="none" fill-rule="evenodd">
    <path d="m0 0h240v240h-240z" fill="#428069" />
    <path d="m206.96543 112.625033-5.334343-2.937255-6.192238-4.400381s14.144259-13.5091714 8.424963-15.9073793c-5.719296-2.4202099-14.518213-5.3464636-14.518213-5.3464636s10.448714-15.6983611 6.269228-16.8534613l-4.069499-1.1440992-11.515582-.946082s8.996892-16.435425 1.825775-16.435425h-12.26349s4.344465-23.8720698-6.599188-14.4552533l-17.63083 14.4552533-7.171117 6.2705437c-7.171117 6.2925456-12.318484 30.3626325-13.946283 36.2371419-.197976 1.1440992-.582928 1.9801717-1.264844 2.618227-1.066869 2.618227-2.903643 6.0725265-6.775166 8.6907538-4.069499 2.618227-7.369093 2.937254-9.876785 2.42021l-.769905-1.166102c2.903643.22002 6.192238-.220019 9.876784-2.618227 2.023751-1.4631264 3.486571-2.9262533 4.729418-4.5983983-1.825775.726063-4.069499 1.1440992-6.57719 2.2001908-5.125369 1.9801715-5.323345 0-5.323345 0-22.5692217-27.9644246-48.042086-30.8906783-48.042086-30.8906783s-26.4407452-6.0725265-17.1578879 10.5609156l5.9172716 6.2925456s-18.6976984 4.6204006-11.5265811 12.5630893c7.1711172 7.9646903 7.1711172 8.1737083 7.1711172 8.1737083s-16.1680097 9.427818-11.9115337 13.091135l4.3554639 3.553308 7.3690928 4.818418s-12.2964863 12.552089-9.4918315 14.752279c2.9146412 2.200191 13.3743536 7.546655 13.3743536 7.546655s-11.5265811 16.853461-2.2327252 17.051478l9.2058668.220019h1.8367739s-6.3792147 21.253843-2.9036425 20.736798c3.4865708-.528046 3.6845464-.220019 3.6845464-.220019l11.3286055-1.144099s-8.0290117 27.535387 3.1016182 21.253843l11.0426406-6.270544s31.9730644-29.020516 35.0856814-47.74414c0 0 1.242847-14.9943 5.895274-16.457427 0 0 3.871523-3.564309 12.098511 9.625835 0 0 15.211127 20.516779 42.916717 19.581698 0 0 25.472864 3.872336 20.732448-4.400382-4.751416-8.173708-9.491832-14.246235-10.448714-14.961297 0 0 19.65458-4.6204 15.398104-9.647836l-4.267474-5.027436-6.599188-6.79859c-.57193.440038 18.312746-9.207798 12.791425-12.354071z" fill="#fff" />
  </g>
</svg>

<svg width="240" height="240" viewBox="0 0 240 240" xmlns="http://www.w3.org/2000/svg">
  <g fill="none" fill-rule="evenodd">
    <rect fill="#428069" width="240" height="240" />
    <path d="M206.96543,112.625033 L201.631087,109.687778 L195.438849,105.287397 C195.438849,105.287397 209.583108,91.7782256 203.863812,89.3800177 C198.144516,86.9598078 189.345599,84.0335541 189.345599,84.0335541 C189.345599,84.0335541 199.794313,68.335193 195.614827,67.1800928 L191.545328,66.0359936 L180.029746,65.0899116 C180.029746,65.0899116 189.026638,48.6544866 181.855521,48.6544866 L169.592031,48.6544866 C169.592031,48.6544866 173.936496,24.7824168 162.992843,34.1992333 L145.362013,48.6544866 L138.190896,54.9250303 C131.019779,61.2175759 125.872412,85.2876628 124.244613,91.1621722 C124.046637,92.3062714 123.661685,93.1423439 122.979769,93.7803992 C121.9129,96.3986262 120.076126,99.8529257 116.204603,102.471153 C112.135104,105.08938 108.83551,105.408407 106.327818,104.891363 L105.557913,103.725261 C108.461556,103.945281 111.750151,103.505242 115.434697,101.107034 C117.458448,99.6439076 118.921268,98.1807807 120.164115,96.5086357 C118.33834,97.2346987 116.094616,97.6527349 113.586925,98.7088265 C108.461556,100.688998 108.26358,98.7088265 108.26358,98.7088265 C85.6943583,70.7444019 60.221494,67.8181482 60.221494,67.8181482 C60.221494,67.8181482 33.7807488,61.7456217 43.0636061,78.3790638 L48.9808777,84.6716094 C48.9808777,84.6716094 30.2831793,89.29201 37.4542966,97.2346987 C44.6254138,105.199389 44.6254138,105.408407 44.6254138,105.408407 C44.6254138,105.408407 28.4574041,114.836225 32.7138801,118.499542 L37.069344,122.05285 L44.4384368,126.871268 C44.4384368,126.871268 32.1419505,139.423357 34.9466053,141.623547 C37.8612465,143.823738 48.3209589,149.170202 48.3209589,149.170202 C48.3209589,149.170202 36.7943778,166.023663 46.0882337,166.22168 L55.2941005,166.441699 L57.1308744,166.441699 C57.1308744,166.441699 50.7516597,187.695542 54.2272319,187.178497 C57.7138027,186.650451 57.9117783,186.958478 57.9117783,186.958478 L69.2403838,185.814379 C69.2403838,185.814379 61.2113721,213.349766 72.342002,207.068222 L83.3846426,200.797678 C83.3846426,200.797678 115.357707,171.777162 118.470324,153.053538 C118.470324,153.053538 119.713171,138.059238 124.365598,136.596111 C124.365598,136.596111 128.237121,133.031802 136.464109,146.221946 C136.464109,146.221946 151.675236,166.738725 179.380826,165.803644 C179.380826,165.803644 204.85369,169.67598 200.113274,161.403262 C195.361858,153.229554 190.621442,147.157027 189.66456,146.441965 C189.66456,146.441965 209.31914,141.821565 205.062664,136.794129 L200.79519,131.766693 L194.196002,124.968103 C193.624072,125.408141 212.508748,115.760305 206.987427,112.614032 L206.96543,112.625033 Z" fill="#FFF" />
  </g>
</svg>
